X:94
T: "Bukovinai dudanóta"
M: 4/4
L: 1/4
K: F
gagf | gfed | 
gagf | ecdc | 
fedB | cBAG | 
cdcB | GGAG | 

